!!!OTL: 19e. Die schwarzbraune Hexe.
!!!ARE: Europa, Mitteleuropa, Deutschland, Berlin
!!!SCT: E0019A
!!!TXL: @@DE
!!!YEM: Copyright 1995, estate of Helmut Schaffrath.
**kern	**text
*ICvox	*
*M4/4	*
*met(c)	*
*k[f#]	*
*G:	*
!LO:TX:a:t=Mäßig geſchwind.	!
!LO:TX:a:t=Umgegend von Berlin.	!
{4d	Es
=1	=1
4g	blies
4g	ein
4g	Jäger
4dd	wol
=2	=2
4b	in
4dd	ſein
4g	Horn,
4dd	wol
=3	=3
4b	in
4dd	ſein
4g	Horn,
8r}	.
{8g	und
=4	=4
8a	Al-
8a	-les
8a	was
8a	er
8aL	blies,
8gJ	.
8f#L	das
8gJ	.
=5	=5
8aL	war
8gJ	.
8f#L	ver-
8eJ	.
4d	-lorn,
4r}	.
=6	=6
{4g	Hop-
4g	-ſa-
4.g	-ſa,
8b	tra-
=7	=7
4a	-ra-
4a	-ra-
4a	-ra!
8r}	.
{8a	und
=8	=8
8b	Al-
8a	-les
8b	was
8cc	er
4dd	blies,
4g	das
=9	=9
(16bqq	.
4a)	war
4b/	ver-
4g}	-lorn.
==	==
!!!AGN: Sage, Maerchen -, Zauber - Lied, Ballade ?
!!!ONB: ESAC (Essen Associative Code) Database: ERK1
!!!AMT: simple quadruple
!!!AIN: vox
!!!EED: Helmut Schaffrath
!!!EEV: 1.0
!!!GTL: Nachtklaenge der Goettersage (Zaubermaeren)
!!!URL-scan: https://rosdok.uni-rostock.de/mcrviewer/recordIdentifier/rosdok_ppn745146120/iview2/phys_0117.iview2?x=-4.404412318552431&y=57.10522079607472&scale=0.645690413860662&rotation=0&layout=singlePageLayout&logicalDiv=log_0009
!!!ENC: Anna Maria Matuszewska
!!!EEV: 2024/22/11
*-	*-
